X:127
T:Wigginton Wind Mill. VWMLa.127
%%VWML:Anon2-3049-p72-0
F:http://www.vwml.org/record/Anon2/3049/p72
S:Anon. MS, late 18thC, Vaughan Williams Mem. Library
O:England;Yorkshire
Z:vmp/efdss.Simon Wilson. Reviewed PJH 2008.
M:2/4
L:1/16
Q:1/4=80
K:D
d2de fdAc|B2Bc dAFA|GFED BAGF|gfed dcBA|\
d2de fdAc|BAGF E2ef|gBed dcBA|Bgec d4:|
|:f2fg afdf|e2ef geAe|fedc BAGF|EDCB, A,CEG|\
F2FG AFAd|G2GA BGBd|cdef gecd|AGFE D4:|
T:Wednesday Night. VWMLa.128
R:Country-dance
S:Anon. MS, late 18thC, Vaughan Williams Mem. Library
O:England;Yorkshire
Z:vmp/efdss.Simon Wilson. Reviewed PJH 2008.
M:C|
L:1/8
Q:1/2=120
K:D
D2FA d2f2|edcB AGFE|D2FA d2f2|edcd e4:|
|:a2fd B2gf|edcB AGFE|D2FA d2g2|fdec d4:|
